X:141
%%etbk:tnset id:50,pos:1,rep:3x,ant:
%%etbk:wsite http://www.thesession.org/tunes/display/2425
%%etbk:skill ?
%%etbk:pldat 2013-05-15T16:18
T: Bag Of Potatoes, The
T: Anything For John Joe
Z: Piano Box Version by Martin Fleischmann
H: Created 2013-02-19 /  Last Modified 2013-02-19
M: 4/4
L: 1/8
R: reel
K:Fmaj
|: "F"!1!A!2!cc{e}c !1!A!3!dd{e}d | !1!A!2!cc!1!A !2!G{B}G!1!F!2!G | !1!A!2!cc{e}c !1!A!3!dd!1!c | "C"!2!fgaf "F"!3!g{a}g!2!f2 :|
|: "F"!2!fgaf "C"!1!d!3!gg{a}g | "F"!2!fgaf !1!d2!1!c2 | !2!fgaf "C"!1!d!3!gg{a}g | "F"!2!f!1!d!2!c!1!A !2!G{A}G!1!F2:|
